build/images/questions/accordion-btn-sm.svg

<svg width="17" height="18" viewBox="0 0 17 18" fill="none" xmlns="http://www.w3.org/2000/svg">
<path d="M8.98244 0.5L8.98244 6.21261C9.03398 6.36604 9.08912 6.51706 9.15145 6.66689C9.29227 7.03316 9.50703 7.3665 9.78233 7.64613C10.0576 7.92576 10.3876 8.14569 10.7516 8.29222C10.9542 8.37612 11.1627 8.44924 11.3725 8.51756L17 8.51756L17 9.47645L11.2466 9.47645C11.1819 9.49803 11.1172 9.51601 11.0537 9.53878C10.5918 9.68475 10.1711 9.93799 9.82586 10.2778C9.48066 10.6176 9.2208 11.0342 9.06755 11.4937C9.03398 11.5872 9.00881 11.6831 8.97765 11.7766L8.97765 17.5L8.01875 17.5L8.01875 11.815C8.00078 11.7622 7.98759 11.7083 7.96961 11.6555C7.8236 11.1913 7.58553 10.7612 7.26962 10.391C6.88606 9.96669 6.39702 9.71138 5.86723 9.5232L5.74737 9.48244L-3.50459e-07 9.48244L-3.92373e-07 8.52355L5.6335 8.52355C5.74737 8.48639 5.86244 8.45163 5.97631 8.40369C6.40532 8.2616 6.7971 8.0253 7.12293 7.71212C7.44876 7.39895 7.70038 7.01683 7.85934 6.59377C7.91567 6.45234 7.96601 6.3085 8.01276 6.16347L8.01276 0.5L8.98244 0.5Z" fill="white"/>
</svg>

<svg width="17" height="18" fill="none" xmlns="http://www.w3.org/2000/svg"><path d="M8.982.5v5.713c.052.153.107.304.17.454a2.857 2.857 0 001.6 1.625c.202.084.41.157.62.226H17v.958h-5.753c-.065.022-.13.04-.193.063a3.068 3.068 0 00-1.986 1.955c-.034.093-.06.19-.09.283V17.5h-.96v-5.685c-.017-.053-.03-.107-.048-.16a3.623 3.623 0 00-.7-1.264c-.384-.424-.873-.68-1.403-.868l-.12-.04H0v-.96h5.633c.114-.037.23-.071.343-.12a3.029 3.029 0 001.883-1.81 6.8 6.8 0 00.154-.43V.5h.97z" fill="#fff"/></svg>
